logos/google-gmail.svg

<?xml version="1.0" encoding="UTF-8"?>
<svg width="256px" height="193px" viewBox="0 0 256 193" version="1.1" xmlns="http://www.w3.org/2000/svg" xmlns:xlink="http://www.w3.org/1999/xlink" preserveAspectRatio="xMidYMid">
    <g>
        <path d="M58.1818182,192.049515 L58.1818182,93.1404244 L27.5066233,65.0770089 L0,49.5040608 L0,174.59497 C0,184.253152 7.82545455,192.049515 17.4545455,192.049515 L58.1818182,192.049515 Z" fill="#4285F4"></path>
        <path d="M197.818182,192.049515 L238.545455,192.049515 C248.203636,192.049515 256,184.224061 256,174.59497 L256,49.5040608 L224.844415,67.3422767 L197.818182,93.1404244 L197.818182,192.049515 Z" fill="#34A853"></path>
        <polygon fill="#EA4335" points="58.1818182 93.1404244 54.0077618 54.4932827 58.1818182 17.5040608 128 69.8676972 197.818182 17.5040608 202.487488 52.4960089 197.818182 93.1404244 128 145.504061"></polygon>
        <path d="M197.818182,17.5040608 L197.818182,93.1404244 L256,49.5040608 L256,26.2313335 C256,4.64587897 231.36,-7.65957557 214.109091,5.28587897 L197.818182,17.5040608 Z" fill="#FBBC04"></path>
        <path d="M0,49.5040608 L26.7588051,69.5731646 L58.1818182,93.1404244 L58.1818182,17.5040608 L41.8909091,5.28587897 C24.6109091,-7.65957557 0,4.64587897 0,26.2313335 L0,49.5040608 Z" fill="#C5221F"></path>
    </g>
</svg>

<svg width="256" height="193" xmlns="http://www.w3.org/2000/svg" preserveAspectRatio="xMidYMid">
	<path d="M58.182 192.05V93.14L27.507 65.077 0 49.504v125.091c0 9.658 7.825 17.455 17.455 17.455h40.727Z" fill="#4285F4"/>
	<path d="M197.818 192.05h40.727c9.659 0 17.455-7.826 17.455-17.455V49.505l-31.156 17.837-27.026 25.798v98.91Z" fill="#34A853"/>
	<path fill="#EA4335" d="m58.182 93.14-4.174-38.647 4.174-36.989L128 69.868l69.818-52.364 4.67 34.992-4.67 40.644L128 145.504z"/>
	<path d="M197.818 17.504V93.14L256 49.504V26.231c0-21.585-24.64-33.89-41.89-20.945l-16.292 12.218Z" fill="#FBBC04"/>
	<path d="m0 49.504 26.759 20.07L58.182 93.14V17.504L41.89 5.286C24.61-7.66 0 4.646 0 26.23v23.273Z" fill="#C5221F"/>
</svg>
